www/assets/icons/call_end.svg

<svg width="24" height="24" viewBox="0 0 24 24" xmlns="http://www.w3.org/2000/svg" fill='currentColor'><path d="M12 9.56995C10.4 9.56995 8.85 9.81995 7.4 10.2899V13.3899C7.4 13.7799 7.17 14.1299 6.84 14.2899C5.86 14.7799 4.97 15.4099 4.18 16.1399C4 16.3199 3.75 16.4199 3.48 16.4199C3.2 16.4199 2.95 16.3099 2.77 16.1299L0.29 13.6499C0.11 13.4799 0 13.2299 0 12.9499C0 12.6699 0.11 12.4199 0.29 12.2399C3.34 9.34995 7.46 7.56995 12 7.56995C16.54 7.56995 20.66 9.34995 23.71 12.2399C23.89 12.4199 24 12.6699 24 12.9499C24 13.2299 23.89 13.4799 23.71 13.6599L21.23 16.1399C21.05 16.3199 20.8 16.4299 20.52 16.4299C20.25 16.4299 20 16.3199 19.82 16.1499C19.03 15.4099 18.13 14.7899 17.15 14.2999C16.82 14.1399 16.59 13.7999 16.59 13.3999V10.2999C15.15 9.81995 13.6 9.56995 12 9.56995Z"/></svg>

<svg xmlns="http://www.w3.org/2000/svg" width="24" height="24" viewBox="0 0 24 24" fill='currentColor'><path d="M12 9.57c-1.6 0-3.15.25-4.6.72v3.1c0 .39-.23.74-.56.9-.98.49-1.87 1.12-2.66 1.85-.18.18-.43.28-.7.28-.28 0-.53-.11-.71-.29L.29 13.65a.96.96 0 0 1-.29-.7c0-.28.11-.53.29-.71C3.34 9.35 7.46 7.57 12 7.57s8.66 1.78 11.71 4.67c.18.18.29.43.29.71s-.11.53-.29.71l-2.48 2.48c-.18.18-.43.29-.71.29-.27 0-.52-.11-.7-.28a11.3 11.3 0 0 0-2.67-1.85 1 1 0 0 1-.56-.9v-3.1c-1.44-.48-2.99-.73-4.59-.73"/></svg>
